X:39
T:On The Blue Lagoon
C:Pat Dunlop
S:National Library of AUSTRALIA MUS N mba 783.2 D922 
%%score 1 ( 2 3 ) ( 4 5 )
L:1/4
M:4/4
K:Ab
|| A/ A F/ G/ G E/ | F/G/E/F/- F/E/F/G/ | A A G E |$ 
F2- F/E/F/G/ | A/ A F/ G/ G E/ | F/G/E/F/- F/E/F/^F/ |$ G e =d G | c2 c/ z/ c/=B/ | 
c/=A/G/F/- F/ c =B/ | c/_B/_A/F/- F F/G/ |$ A F A c | e2- e z || A/G/A/G/ B A | F G F/ E3/2 | 
B/=A/B/A/ c G |$ F2- F/ z/ E | A/G/A/G/ B A | G A =A B | =d/c/A/F/ d/c/A/F/ |$ B2- B z | 
A/G/A/G/ B A | F G F/ E3/2 | B/=A/B/A/ B =B | c2- c z |$ d/c/=A/F/ d/c/A/F/ | c B _A F | 
E/F/A/F/ A G |1 A2- A z :|2$ A2 =E2 | _E/F/A/F/ A e | A2- A z |] 

%%newpage

